X: 14839
T: Garfield's Blackberry Blossom
R: reel
M: 4/4
K: Gmajor
BA|"G" GABc d2 =f2|"G7" d2 =f2 "D"dcBA|"G" GABc de=fe|"G" dcBd "C"cBG2|
"G" GABc d2 =f2|"G" d2 =f2 "D7"dcBA|"G" GA GF "D"D2D2|"D" DGG^F "G"G2:|
d2|"G" g2 g2 "F"=f2 fe|"G" dcBd "C"cBG2|"G" g2 g2 "F"=fedc|"G" dgga g2 ga|
"G" _bagb "F"ag =f2|"G" dcBd "C"cBG2|"G" GABc "D"dBcA|"D" BGAF "G"G2:|

